src/assets/duotone/Home.svg

<svg width="24" height="24" viewBox="0 0 24 24"  xmlns="http://www.w3.org/2000/svg">
<path opacity="0.4" d="M10.0698 2.81986L3.13978 8.36985C2.35978 8.98985 1.85978 10.2999 2.02978 11.2799L3.35978 19.2398C3.59978 20.6598 4.95977 21.8099 6.39977 21.8099H17.5998C19.0298 21.8099 20.3998 20.6498 20.6398 19.2398L21.9698 11.2799C22.1298 10.2999 21.6298 8.98985 20.8598 8.36985L13.9298 2.82984C12.8598 1.96984 11.1298 1.96986 10.0698 2.81986Z" />
<path d="M12 15.5C13.3807 15.5 14.5 14.3807 14.5 13C14.5 11.6193 13.3807 10.5 12 10.5C10.6193 10.5 9.5 11.6193 9.5 13C9.5 14.3807 10.6193 15.5 12 15.5Z" />
</svg>

<?xml version="1.0" encoding="UTF-8"?>
<svg width="24" height="24" viewBox="0 0 24 24" xmlns="http://www.w3.org/2000/svg">
 <path d="m10.07 2.8199-6.93 5.55c-0.78 0.62-1.28 1.93-1.11 2.91l1.33 7.9599c0.24 1.42 1.6 2.5701 3.04 2.5701h11.2c1.43 0 2.8-1.1601 3.04-2.5701l1.33-7.9599c0.16-0.98-0.34-2.29-1.11-2.91l-6.93-5.54c-1.07-0.86-2.8-0.85998-3.86-0.00998z" opacity=".4"/>
 <path d="m12 15.5c1.3807 0 2.5-1.1193 2.5-2.5s-1.1193-2.5-2.5-2.5-2.5 1.1193-2.5 2.5 1.1193 2.5 2.5 2.5z"/>
</svg>
